src/assets/protocols/nav.svg

<svg width="105" height="93" viewBox="0 0 105 93" fill="none" xmlns="http://www.w3.org/2000/svg">
<g filter="url(#filter0_d_1374_4170)">
<path d="M37.0314 31.3528C35.0956 30.5276 33.528 31.335 32.9401 31.7208C32.3582 32.1067 30.9924 33.2346 30.9924 35.336V60.0132C30.9924 62.4827 29.9414 64.8275 28.1006 66.4719L18.6651 74.8955C18.4097 75.127 18 74.943 18 74.5928V35.7159C18 30.3614 20.2861 25.179 24.4725 21.8309C29.5198 17.7824 36.2713 16.8979 42.1322 19.3971L68.5149 30.6582C68.7762 30.771 68.8474 31.1153 68.6396 31.3171C66.7275 33.199 58.5806 40.5481 50.8908 37.2653L37.0314 31.3528ZM54.1033 55.7331C46.4135 52.4504 38.2665 59.7995 36.3545 61.6813C36.1526 61.8831 36.2179 62.2274 36.4792 62.3402L62.8619 73.6014C68.7227 76.1065 75.4743 75.2161 80.5275 71.1734C84.7079 67.8254 87 62.643 87 57.2884V18.4057C87 18.0555 86.5903 17.8714 86.329 18.1029L76.8935 26.5266C75.0527 28.1709 74.0016 30.5217 74.0016 32.9852V57.6624C74.0016 59.7639 72.6418 60.8918 72.054 61.2776C71.4661 61.6635 69.8985 62.4708 67.9627 61.6457L54.1033 55.7331Z" fill="#31CECE"/>
<path d="M37.293 30.7396L37.2928 30.7395C35.0561 29.7861 33.2407 30.7261 32.5743 31.1635L32.5717 31.1652C31.9125 31.6023 30.3258 32.9061 30.3258 35.336V60.0132C30.3258 62.2926 29.3559 64.4566 27.6566 65.9746C27.6566 65.9746 27.6565 65.9747 27.6565 65.9747L18.6667 74.0004V35.7159C18.6667 30.5464 20.874 25.5626 24.8889 22.3516L24.8896 22.351C29.744 18.4572 36.2345 17.607 41.8705 20.0102C41.8705 20.0102 41.8706 20.0103 41.8707 20.0103L67.8889 31.1159C66.7966 32.1561 64.4992 34.1602 61.6273 35.6349C58.4695 37.2564 54.7341 38.1811 51.1525 36.6522L51.1524 36.6521L37.293 30.7396ZM53.8415 56.3463L53.8417 56.3463L67.7011 62.2589L67.7012 62.259C69.9379 63.2124 71.7534 62.2724 72.4198 61.835C73.0892 61.3956 74.6683 60.0912 74.6683 57.6624V32.9852C74.6683 30.7115 75.6384 28.5416 77.3376 27.0237L86.3333 18.9928V57.2884C86.3333 62.4575 84.1204 67.4418 80.1108 70.6531C75.2497 74.5418 68.759 75.397 63.1239 72.9884L63.1236 72.9882L37.1051 61.8826C38.1975 60.8424 40.4948 58.8383 43.3668 57.3636C46.5245 55.7421 50.26 54.8173 53.8415 56.3463Z" stroke="white" stroke-opacity="0.35" stroke-width="1.33333"/>
</g>
<defs>
<filter id="filter0_d_1374_4170" x="0.266666" y="0.266666" width="104.467" height="92.4667" filterUnits="userSpaceOnUse" color-interpolation-filters="sRGB">
<feFlood flood-opacity="0" result="BackgroundImageFix"/>
<feColorMatrix in="SourceAlpha" type="matrix" values="0 0 0 0 0 0 0 0 0 0 0 0 0 0 0 0 0 0 127 0" result="hardAlpha"/>
<feOffset/>
<feGaussianBlur stdDeviation="8.86667"/>
<feComposite in2="hardAlpha" operator="out"/>
<feColorMatrix type="matrix" values="0 0 0 0 0.192157 0 0 0 0 0.807843 0 0 0 0 0.807843 0 0 0 0.53 0"/>
<feBlend mode="normal" in2="BackgroundImageFix" result="effect1_dropShadow_1374_4170"/>
<feBlend mode="normal" in="SourceGraphic" in2="effect1_dropShadow_1374_4170" result="shape"/>
</filter>
</defs>
</svg>

<svg xmlns="http://www.w3.org/2000/svg" fill="none" viewBox="0 0 105 93"><g filter="url(#a)"><path fill="#31CECE" d="M37.031 31.353c-1.935-.825-3.503-.018-4.09.368-.583.386-1.949 1.514-1.949 3.615v24.677a8.65 8.65 0 0 1-2.891 6.459l-9.436 8.424a.4.4 0 0 1-.665-.303V35.716c0-5.355 2.286-10.537 6.473-13.885a17.29 17.29 0 0 1 17.66-2.434l26.382 11.261a.403.403 0 0 1 .125.66c-1.912 1.881-10.06 9.23-17.75 5.947zm17.072 24.38c-7.69-3.283-15.836 4.067-17.748 5.948a.406.406 0 0 0 .124.66L62.862 73.6c5.86 2.505 12.612 1.615 17.666-2.428C84.708 67.825 87 62.643 87 57.288V18.406c0-.35-.41-.535-.671-.303l-9.435 8.424a8.66 8.66 0 0 0-2.892 6.458v24.677c0 2.102-1.36 3.23-1.948 3.616s-2.156 1.193-4.091.368z"/><path stroke="#fff" stroke-opacity=".35" stroke-width="1.333" d="M37.293 30.74c-2.237-.954-4.052-.014-4.719.424l-.002.001c-.66.437-2.246 1.741-2.246 4.171v24.677c0 2.28-.97 4.444-2.67 5.962L18.667 74V35.716c0-5.17 2.208-10.153 6.223-13.364v-.001a16.63 16.63 0 0 1 16.982-2.34L67.89 31.116c-1.092 1.04-3.39 3.044-6.262 4.519-3.158 1.621-6.893 2.546-10.474 1.017zm16.549 25.606 13.86 5.913c2.236.953 4.051.013 4.718-.424.67-.44 2.248-1.744 2.248-4.173V32.985c0-2.273.97-4.443 2.67-5.961l8.995-8.031v38.295c0 5.17-2.213 10.154-6.222 13.365-4.861 3.889-11.352 4.744-16.987 2.335L37.105 61.883c1.093-1.04 3.39-3.045 6.262-4.52 3.158-1.62 6.893-2.546 10.475-1.017Z"/></g><defs><filter id="a" width="104.467" height="92.467" x=".267" y=".267" color-interpolation-filters="sRGB" filterUnits="userSpaceOnUse"><feFlood flood-opacity="0" result="BackgroundImageFix"/><feColorMatrix in="SourceAlpha" result="hardAlpha" values="0 0 0 0 0 0 0 0 0 0 0 0 0 0 0 0 0 0 127 0"/><feOffset/><feGaussianBlur stdDeviation="8.867"/><feComposite in2="hardAlpha" operator="out"/><feColorMatrix values="0 0 0 0 0.192157 0 0 0 0 0.807843 0 0 0 0 0.807843 0 0 0 0.53 0"/><feBlend in2="BackgroundImageFix" result="effect1_dropShadow_1374_4170"/><feBlend in="SourceGraphic" in2="effect1_dropShadow_1374_4170" result="shape"/></filter></defs></svg>
